X:1
T:Reel Session François
R:Reel
M:2/2
K:D
|: d2AG FEDF | EA,A,/A,/A, GFEF | DFAF GABd | AEE/E/E cdec |
   d2AG FEDF | EA,A,/A,/A, GFEF | DFAF GABd | AFGE FDD2 :|
|: d2fd gdfa | eAAB cdec | d2fd gdfg | aeeg ffec |
   d2fd gdfa | eAAB cdeg | ffed decd | dedc d4 :|